-----BEGIN PGP SIGNATURE-----

iQIzBAABCAAdFiEE9oZQouESv60IRUJkz7LnwwbxP10FAmmONdEACgkQz7Lnwwbx
P10PbQ/9EZKskUffUjuRjgkdtJbNHwO/XXaPteW1HGLI/vo9JO/aDkbMQaN5chFH
jBTGD5M/CqkbfBSf0zWWgKXUMi8e1yQXyW7VKoYeExR7986N6XsYc+zpDXtYzIFc
ceWmIamXilGvjkQxvIFAi1ohfDeu7N+lmlAVqjb5s+5jA243qtw4WURwZj9NdwPl
za1xoYaNnLZOUwULuqiMeKsohidJ2XE0+kGsnHUm/WMk2f+7Lu+ASpdgVtZAyS4c
WnpqN6AWjLVVHg9rO5hfqQR9NL0NyxbJNmHkzkvvItuS6W/66y8C+jVLm4Hk1Aba
fBZeD8hVjV1XbqOyvzLmMShPYHzP+5PuUmcpOVbxmM56RbfLTsiryx6K1krpHwyH
/rsuYUDBLnOMKTNYpwpfjdAQvwvxvynQxRyhzDhTtcqdwOxvj0+BSdcG5BjgTqdr
aJmQvF6T45L3l0YOf8loC66avWdqI1U4ff9boZvP9k/SgjRg98UbjQMCAJtKqak4
9LzliEQeQWQWUt6ABAXXPMMIfkrtn19uzdAVwnMWfSvb8GVS6oMdtw40yBU/PhDD
/p/dmwlfjJesdEUuxrHmzuyJaTC76FakChkTgRYQbDOj63A1es7dKI2vmI/Gc/xA
XhWCBry2+bIwY2Ie4bgFYYE0S4bV8T3hexRygachhkk63lPumeM=
=48m+
-----END PGP SIGNATURE-----
